64x64/apps/chrome-fpniocchabmgenibceglhnfeimmdhdfm-Default.svg

<svg xmlns="http://www.w3.org/2000/svg" width="64" height="64" version="1">
 <path style="fill:#4f4f4f" d="M 62,32 A 30,30 0 0 1 32,62 30,30 0 0 1 2,32 30,30 0 0 1 32,2 30,30 0 0 1 62,32 Z"/>
 <path style="opacity:0.1;fill:#f4f4f7" d="M 32 2 A 30.0005 30.0005 0 0 0 2 32 A 30.0005 30.0005 0 0 0 2.0175781 32.511719 A 30.0005 30.0005 0 0 1 32 3 A 30.0005 30.0005 0 0 1 61.976562 32.515625 A 30.0005 30.0005 0 0 0 62 32 A 30.0005 30.0005 0 0 0 32 2 z"/>
 <path style="opacity:0.2" d="M 61.960938 32.828125 A 30 30 0 0 1 32 62 A 30 30 0 0 1 2.0390625 33.171875 A 30 30 0 0 0 2 34 A 30 30 0 0 0 2.0234375 34.484375 A 30 30 0 0 1 2.0390625 34.171875 A 30 30 0 0 0 32 63 A 30 30 0 0 0 61.960938 33.828125 A 30 30 0 0 1 61.982422 34.488281 A 30 30 0 0 0 62 34 A 30 30 0 0 0 61.960938 32.828125 z"/>
 <path style="opacity:0.2" d="M 22,17 31,17 46,31.666 31,49 22,49 37,31.666 M 22,17"/>
 <path style="fill:#ff9b2a" d="M 22,16 31,16 46,30.666 31,48 22,48 37,30.666 M 22,16"/>
</svg>

<svg xmlns="http://www.w3.org/2000/svg" width="64" height="64" version="1"><path style="fill:#4f4f4f" d="M62 32a30 30 0 0 1-30 30A30 30 0 0 1 2 32 30 30 0 0 1 32 2a30 30 0 0 1 30 30z"/><path style="opacity:.1;fill:#f4f4f7" d="M32 2A30 30 0 0 0 2 32a30 30 0 0 0 .018.512A30 30 0 0 1 32 3a30 30 0 0 1 29.977 29.516A30 30 0 0 0 62 32 30 30 0 0 0 32 2z"/><path style="opacity:.2" d="M61.96 32.828A30 30 0 0 1 32 62 30 30 0 0 1 2.04 33.172 30 30 0 0 0 2 34a30 30 0 0 0 .023.484 30 30 0 0 1 .016-.312A30 30 0 0 0 32 63a30 30 0 0 0 29.96-29.172 30 30 0 0 1 .022.66A30 30 0 0 0 62 34a30 30 0 0 0-.04-1.172z"/><path style="opacity:.2" d="M22 17h9l15 14.666L31 49h-9l15-17.334M22 17"/><path style="fill:#ff9b2a" d="M22 16h9l15 14.666L31 48h-9l15-17.334M22 16"/></svg>
